dist/svg/static/camera-large.svg

<svg xmlns="http://www.w3.org/2000/svg" width="48" height="48" viewBox="0 0 48 48"><g fill="none" stroke="currentColor" stroke-miterlimit="10"><path d="M35.5 13.5h10v23a1.969 1.969 0 0 1-2 2h-41v-23a1.969 1.969 0 0 1 2-2h8v-2a1.97 1.97 0 0 1 2-2h19a1.974 1.974 0 0 1 2 2v2z"/><circle cx="24" cy="25" r="9.5"/></g></svg>

<?xml version="1.0" encoding="UTF-8" standalone="no"?>
<svg width="48px" height="48px" viewBox="0 0 48 48" version="1.1" xmlns="http://www.w3.org/2000/svg" xmlns:xlink="http://www.w3.org/1999/xlink">
    <!-- Generator: sketchtool 46.2 (44496) - http://www.bohemiancoding.com/sketch -->
    <title>camera-large</title>
    <desc>Created with sketchtool.</desc>
    <defs></defs>
    <g id="icons-published" stroke="none" stroke-width="1" fill="none" fill-rule="evenodd">
        <g id="briefing" transform="translate(-864.000000, -282.000000)"></g>
        <g id="camera-large" stroke="#000000">
            <path d="M35.5,13.5 L45.5,13.5 L45.5,36.5 C45.5,37.6 44.6,38.5 43.6,38.5 C43.6,38.5 43.6,38.5 43.5,38.5 L2.5,38.5 L2.5,15.5 C2.5,14.4 3.4,13.5 4.4,13.5 C4.4,13.5 4.4,13.5 4.5,13.5 L12.5,13.5 L12.5,11.5 C12.5,10.4 13.4,9.5 14.4,9.5 C14.4,9.5 14.4,9.5 14.5,9.5 L33.5,9.5 C34.6,9.5 35.5,10.4 35.5,11.4 C35.5,11.4 35.5,11.4 35.5,11.5 L35.5,13.5 Z" id="Shape"></path>
            <circle id="Oval" cx="24" cy="25" r="9.5"></circle>
        </g>
    </g>
</svg>
